X:54
T:The Rising Sun
N:Reel  Allan's #54  (pg13)
N:Trad/Anon
B:Allan's Irish Fiddler (pub. Mozart Allen,  Glascow) date unknown
Z:FROM ALLAN'S TO NOTEWORTHY, FROM NOTEWORTHY TO ABC, MIDI AND .TXT BY VINCE
BRENNAN Dec. 2002 (HTTP://WWW.SOSYOURMOM.COM)
I:abc2nwc
M:2/2
L:1/8
K:D
c||dBAF DFDE| {G}F EFA BABc|dcdB AFdB|AFEF (D2D) c|
dBAF DFDE| {G}F EFA BABc|dcdB AFdB|AFEF (D2D)||
c|:.d.e.f.g .a.f.d.f|.e.d.e.f .e.d.B.A|.d.e.f.g .a.f.d.f|.e.d.e.f (d2d)c|
.d.e.f.g .a.f.d.f|.e.d.e.f .e.d.B.A|.d.e.f.g .a.f.b.f|.g.f.e.c .d.g.f.e:|
